icons/pin-filled-12px.svg

<svg width="12" height="12" viewBox="0 0 12 12" fill="none" xmlns="http://www.w3.org/2000/svg"><path d="M8.05858 6.05858C8.02107 6.02107 8 5.9702 8 5.91716V2.2C8 2.08954 8.08954 2 8.2 2H8.3C8.41046 2 8.5 1.91046 8.5 1.8V1.2C8.5 1.08954 8.41046 1 8.3 1H3.7C3.58954 1 3.5 1.08954 3.5 1.2V1.8C3.5 1.91046 3.58954 2 3.7 2H3.8C3.91046 2 4 2.08954 4 2.2V5.91716C4 5.9702 3.97893 6.02107 3.94142 6.05858L3.05858 6.94142C3.02107 6.97893 3 7.0298 3 7.08284V7.8C3 7.91046 3.08954 8 3.2 8H5.3C5.41046 8 5.5 8.08954 5.5 8.2V10.8C5.5 10.9105 5.58954 11 5.7 11H6.3C6.41046 11 6.5 10.9105 6.5 10.8V8.2C6.5 8.08954 6.58954 8 6.7 8H8.8C8.91046 8 9 7.91046 9 7.8V7.08284C9 7.0298 8.97893 6.97893 8.94142 6.94142L8.05858 6.05858Z" fill="currentColor"/></svg>

<svg xmlns="http://www.w3.org/2000/svg" width="12" height="12" fill="currentColor"><path fill="currentColor" d="M8.059 6.059A.2.2 0 0 1 8 5.917V2.2c0-.11.09-.2.2-.2h.1a.2.2 0 0 0 .2-.2v-.6a.2.2 0 0 0-.2-.2H3.7a.2.2 0 0 0-.2.2v.6c0 .11.09.2.2.2h.1c.11 0 .2.09.2.2v3.717a.2.2 0 0 1-.059.142l-.882.882A.2.2 0 0 0 3 7.083V7.8c0 .11.09.2.2.2h2.1c.11 0 .2.09.2.2v2.6c0 .11.09.2.2.2h.6a.2.2 0 0 0 .2-.2V8.2c0-.11.09-.2.2-.2h2.1a.2.2 0 0 0 .2-.2v-.717a.2.2 0 0 0-.059-.142z"/></svg>
